public/images/icon-complements-white.svg

<?xml version="1.0" encoding="UTF-8" standalone="no"?>
<svg width="17px" height="16px" viewBox="0 0 17 16" version="1.1" xmlns="http://www.w3.org/2000/svg" xmlns:xlink="http://www.w3.org/1999/xlink" xmlns:sketch="http://www.bohemiancoding.com/sketch/ns">
    <!-- Generator: Sketch 3.3.2 (12043) - http://www.bohemiancoding.com/sketch -->
    <title>Untitled 4</title>
    <desc>Created with Sketch.</desc>
    <defs></defs>
    <g id="Page-1" stroke="none" stroke-width="1" fill="none" fill-rule="evenodd" sketch:type="MSPage">
        <path d="M14,1 L3,1" id="Shape" stroke="#FFFFFF" stroke-width="1.5" sketch:type="MSShapeGroup"></path>
        <path d="M16,4.65517241 C16,4.34482759 15.8,4.13793103 15.5,4.13793103 L1.5,4.13793103 C1.2,4.13793103 1,4.34482759 1,4.65517241 L1,14.4827586 C1,14.7931034 1.2,15 1.5,15 L15.5,15 C15.8,15 16,14.7931034 16,14.4827586 L16,4.65517241 L16,4.65517241 Z" id="Shape" stroke="#FFFFFF" stroke-width="1.5" sketch:type="MSShapeGroup"></path>
        <path d="M5.5,8.27586207 L5.5,9.82758621 C5.5,10.137931 5.7,10.3448276 6,10.3448276 L11,10.3448276 C11.3,10.3448276 11.5,10.137931 11.5,9.82758621 L11.5,8.27586207" id="Shape" stroke="#FFFFFF" stroke-width="1.5" sketch:type="MSShapeGroup"></path>
    </g>
</svg>

<?xml version="1.0" encoding="UTF-8" standalone="no"?>
<svg xmlns:sketch="http://www.bohemiancoding.com/sketch/ns" xmlns="http://www.w3.org/2000/svg" height="16px" width="17px" version="1.1" xmlns:xlink="http://www.w3.org/1999/xlink" viewBox="0 0 17 16"><!-- Generator: Sketch 3.3.2 (12043) - http://www.bohemiancoding.com/sketch -->
 <title>Untitled 4</title>
 <desc>Created with Sketch.</desc>
 <g id="Page-1" fill-rule="evenodd" sketch:type="MSPage" stroke="#fff" stroke-width="1.5" fill="none">
  <path id="Shape" sketch:type="MSShapeGroup" d="m14 1h-11"/>
  <path id="Shape" sketch:type="MSShapeGroup" d="m16 4.6552c0-0.3104-0.2-0.5173-0.5-0.5173h-14c-0.3 0-0.5 0.2069-0.5 0.5173v9.8278c0 0.31 0.2 0.517 0.5 0.517h14c0.3 0 0.5-0.207 0.5-0.517v-9.8278z"/>
  <path id="Shape" sketch:type="MSShapeGroup" d="m5.5 8.2759v1.5517c0 0.3104 0.2 0.5174 0.5 0.5174h5c0.3 0 0.5-0.207 0.5-0.5174v-1.5517"/>
 </g>
</svg>
